Yaru++/status/16/audio-input-microphone-muted.svg

<svg height="16" width="16" xmlns="http://www.w3.org/2000/svg">
  <path d="m7.496 0c-1.409 0-2.496.842-2.496 2.537v5.924c0 .272.037.514.09.742l.908-.908v-5.758c0-.634.177-.959.408-1.178.232-.218.585-.36 1.09-.36s.856.141 1.088.36c.232.22.408.545.408 1.178v2.764l.998-.998v-1.766c0-1.692-1.085-2.537-2.494-2.537zm6.756 1.252-13 13 .496.496 2.848-2.848a4.484 4.484 0 0 0 2.404 1.05v2.073a7.576 7.576 0 0 0 -2 .436v.541h5v-.541a7.856 7.856 0 0 0 -2-.434v-2.075c2.252-.25 4-2.128 4-4.449v-1.501h-1v1.5a3.482 3.482 0 0 1 -3 3.451v-.451h-1v.451a3.49 3.49 0 0 1 -1.707-.748l.662-.662c.42.302.948.459 1.541.459 1.41 0 2.494-.846 2.494-2.54v-1.953l4.758-4.758zm-11.252 5.748v1.5c0 .806.222 1.552.592 2.201l.742-.742a3.45 3.45 0 0 1 -.334-1.459v-1.5zm5.992.504v.957c0 .633-.176.958-.408 1.178-.232.219-.583.363-1.088.363-.343 0-.61-.07-.822-.18z" fill="#808080" opacity=".5"/>
</svg>

<svg height="16" width="16" xmlns="http://www.w3.org/2000/svg">
    <path d="M7.496 0C6.087 0 5 .842 5 2.537V8.461c0 .272.037.514.09.742l.908-.908V2.537c0-.634.177-.959.408-1.178.232-.218.585-.36 1.09-.36.505 0 .856.141 1.088.36.232.22.408.545.408 1.178V5.301l.998-.998V2.537C9.99.845 8.905 0 7.496 0zm6.756 1.252l-13 13 .496.496L4.596 11.9A4.484 4.484 0 0 0 7 12.95v2.073a7.576 7.576 0 0 0-2 .436V16h5v-.541a7.856 7.856 0 0 0-2-.434V12.95c2.252-.25 4-2.128 4-4.449V7h-1v1.5a3.482 3.482 0 0 1-3 3.451V11.5H7v.451a3.49 3.49 0 0 1-1.707-.748l.662-.662c.42.302.948.459 1.541.459 1.41 0 2.494-.846 2.494-2.54V6.507l4.758-4.758zM3 7v1.5c0 .806.222 1.552.592 2.201l.742-.742A3.45 3.45 0 0 1 4 8.5V7zm5.992.504v.957c0 .633-.176.958-.408 1.178-.232.219-.583.363-1.088.363-.343 0-.61-.07-.822-.18z" style="marker:none" color="#000" overflow="visible" opacity=".5" fill="gray"/>
</svg>
